X:1
T:Awake, Awake! O Heart of Mine!
T:Awake, Awake! O Heart of Mine!
T:John Robson Sweney
T:Frances Jane (Fanny) Crosby, 1887
T:Public Domain Courtesy of the Cyber Hymnal™
T:Public Domain Courtesy of the Cyber Hymnal™
C:John Robson Sweney
Z:Public Domain
Z:Courtesy of the Cyber Hymnal™
%%score ( 1 2 ) ( 3 4 )
L:1/8
Q:1/4=135
M:9/8
K:Eb
V:1 treble 
V:2 treble 
V:3 bass 
V:4 bass 
V:1
 E [EG]2 [FA] | [GB]3- [GB]2 [GB] [^Fc]2 [Fe] | [GB]6 [EB]3 | [DB]3- [DB]2 [DF] [EG]2 [FA] | %4
w: 1.~A- wake, a-|wake, * O heart of|mine! Sing|praise * to God a-|
w: 2.~Re- deemed by|Him, * my Lord and|king, Who|saves * me day by|
w: 3.~O love, un-|chang- * ing, love sub-|lime! Not|all * the hosts a-|
 [EG]3- [EG]2 E [EG]2 [FA] | [GB]3- [GB]2 [GB] [^Fc]2 [Fe] | [GB]3- [GB]3 [Ge]3 | %7
w: bove; * Take up the|song * of end- less|years, * And|
w: day; * My life and|all * its ran- somed|powers * Could|
w: bove * Can reach the|height * or sound the|depth * Of|
 [Fd]3- [Fd]2 F [E=A]2 [Ec] | [DB]3- [DB]3 [DB]3 | [DB]2 [DA] [DA]3- [DA]2 [GB] | %10
w: sing * re- deem- ing|love! * Re-|deemed by Him * Who|
w: ne’er * His love re-|pay. * And|yet His mer- * cy|
w: God’s * e- ter- nal|love. * This|wond- rous love * en-|
 [FA]2 [EG] [EG]3 [EG]3 | [E_G]3- [EG]2 [EG] [EF]2 E | B3- [FB]2 E [EG]2 [FA] | %13
w: bore my sins, When|on * the cross He|died; Re- deemed and pur-|
w: con- de- scends My|hum- * ble gift to|own; And through the rich-|
w: folds the world, It|fills * the realms a-|bove; ’Tis bound- less as|
 [GB]3- [GB]2 [GB] [^Fc]2 [Fe] | [GB]3- [GB]2 [EB] [Ec]2 [EB] | [D-F]3 [DG]3 [DF]3 | E3- _E2 || %17
w: chased * with His blood,|Re- * deemed and sanc-|ti- * fied.||
w: es * of His grace,|He * brings me near|His * throne.|A- *|
w: e- * ter- ni- ty;|Oh, * praise the God|of * love!||
[M:2/8]"^Refrain" B (BG)e | (z2 d3-) [Ad]2 [Ac] [GB]2 [FA] x | %19
w: ||
w: wake, a- * wake,|* O heart of mine!|
w: ||
 [EG]3- [EG]3- [EG]2 [EG] [FA]2 [GB] | [Ac]3- [Ac]3- [Ac]2 [ce] [Bd]2 [Ac] | %21
w: ||
w: * * * Sing praise, sing|praise * * to God a-|
w: ||
 [GB]3- [GB]3- [GB]2 [GB] [^F=A]2 [GB] | [Af]3- [Af]3- [Af]2 [FA] [=EG]2 [FA] | %23
w: ||
w: bove; * * Take up the|song * * of end- less|
w: ||
 [GB]3- [GB]3- [GB]3 (Bcd) | [Ge]3- [Ge]2 [EG] ([DB]3- BA)[DF] | (z2 B, E3-) [B,E]4 |] %26
w: |||
w: years, * * And * *|sing * re- deem- * * *|* * ing|
w: |||
V:2
 E x3 | x9 | x9 | x9 | x5 E x3 | x9 | x9 | x9 | x9 | x9 | x9 | x8 E | (D2 E) E x5 | x9 | x9 | x9 | %16
 E3 _E2 ||[M:2/8] BBGe | d3 A A2 A x5 | x12 | x12 | x12 | x12 | x9 A3 | x9 D2 x | E3- C2 C x4 |] %26
V:3
 [E,G,] [E,B,]2 [E,B,] | [E,E]3- [E,E]2 [E,B,] [E,=A,]2 [E,C] | [E,E]6 [E,G,]3 | %3
 [B,,F,]3- [B,,F,]2 [B,,B,] [B,,B,]2 [B,,B,] | [E,B,]3- [E,B,]2 [E,G,] [E,B,]2 [E,B,] | %5
 [E,E]3- [E,E]2 [E,B,] [E,=A,]2 [E,C] | [E,E]3- [E,E]3 [E,B,]3 | [F,B,]3- [F,B,]2 [F,D] [F,C]2 F, | %8
 [B,,F,]3- [B,,F,]3 [B,,F,]3 | [B,,F,]2 [B,,F,] [B,,F,]3- [B,,F,]2 [B,,B,] | %10
 [E,B,]2 [E,B,] [E,B,]3 [E,B,]3 | [E,B,]3- [E,B,]2 [E,B,] [E,A,]2 [E,_G,] | %12
 (F,2 G,) [B,,A,]2 [E,G,] [E,B,]2 [E,B,] | [E,E]3- [E,E]2 [E,B,] [E,=A,]2 [E,C] | %14
 [E,E]3- [E,E]2 [E,G,] [E,A,]2 [E,G,] | [B,,-A,]3 [B,,B,]3 [B,,A,]3 | [E,G,]3- [E,G,]2 || %17
[M:2/8] z4 | z2 [B,,F,] [B,,F,]2 [B,,F,] [B,,F,]2 z4 | z2 [E,B,] [E,B,]2 [E,B,] [E,B,]2 z4 | %20
 z2 [A,E] [A,E]2 [A,E] [A,E]2 [A,E] [A,E]2 [A,E] | [E,E]2 [E,E] [E,E]2 [E,E] [E,E]2 z4 | %22
 z2 [B,D] [B,D]2 [B,D] [B,D]2 z4 | z2 [E,E] [E,E]2 [E,E] [E,E]3 B,3 | %24
 [E,B,]2 [E,B,] [E,B,]2 [E,B,] ([B,,-B,]3 [B,,F,]2) [B,,A,] | %25
 ([E,G,]2 [E,G,] [E,A,]2 [E,A,] [E,G,]4) |] %26
V:4
 x4 | x9 | x9 | x9 | x9 | x9 | x9 | x9 | x9 | x9 | x9 | x9 | B,,3- x6 | x9 | x9 | x9 | x5 || %17
[M:2/8] x4 | x12 | x12 | x12 | x12 | x12 | x9 B,3 | x12 | x10 |] %26

